assets/social_media/website.svg

<svg xmlns="http://www.w3.org/2000/svg" width="24" height="24" viewBox="0 0 24 24"><path fill="#fff" d="M12 0c-6.627 0-12 5.373-12 12s5.373 12 12 12 12-5.373 12-12-5.373-12-12-12zm1 16.057v-3.057h2.994c-.059 1.143-.212 2.24-.456 3.279-.823-.12-1.674-.188-2.538-.222zm1.957 2.162c-.499 1.33-1.159 2.497-1.957 3.456v-3.62c.666.028 1.319.081 1.957.164zm-1.957-7.219v-3.015c.868-.034 1.721-.103 2.548-.224.238 1.027.389 2.111.446 3.239h-2.994zm0-5.014v-3.661c.806.969 1.471 2.15 1.971 3.496-.642.084-1.3.137-1.971.165zm2.703-3.267c1.237.496 2.354 1.228 3.29 2.146-.642.234-1.311.442-2.019.607-.344-.992-.775-1.91-1.271-2.753zm-7.241 13.56c-.244-1.039-.398-2.136-.456-3.279h2.994v3.057c-.865.034-1.714.102-2.538.222zm2.538 1.776v3.62c-.798-.959-1.458-2.126-1.957-3.456.638-.083 1.291-.136 1.957-.164zm-2.994-7.055c.057-1.128.207-2.212.446-3.239.827.121 1.68.19 2.548.224v3.015h-2.994zm1.024-5.179c.5-1.346 1.165-2.527 1.97-3.496v3.661c-.671-.028-1.329-.081-1.97-.165zm-2.005-.35c-.708-.165-1.377-.373-2.018-.607.937-.918 2.053-1.65 3.29-2.146-.496.844-.927 1.762-1.272 2.753zm-.549 1.918c-.264 1.151-.434 2.36-.492 3.611h-3.933c.165-1.658.739-3.197 1.617-4.518.88.361 1.816.67 2.808.907zm.009 9.262c-.988.236-1.92.542-2.797.9-.89-1.328-1.471-2.879-1.637-4.551h3.934c.058 1.265.231 2.488.5 3.651zm.553 1.917c.342.976.768 1.881 1.257 2.712-1.223-.49-2.326-1.211-3.256-2.115.636-.229 1.299-.435 1.999-.597zm9.924 0c.7.163 1.362.367 1.999.597-.931.903-2.034 1.625-3.257 2.116.489-.832.915-1.737 1.258-2.713zm.553-1.917c.27-1.163.442-2.386.501-3.651h3.934c-.167 1.672-.748 3.223-1.638 4.551-.877-.358-1.81-.664-2.797-.9zm.501-5.651c-.058-1.251-.229-2.46-.492-3.611.992-.237 1.929-.546 2.809-.907.877 1.321 1.451 2.86 1.616 4.518h-3.933z"/></svg>

<?xml version="1.0" encoding="utf-8"?>
<!-- Generator: Adobe Illustrator 23.0.3, SVG Export Plug-In . SVG Version: 6.00 Build 0)  -->
<svg version="1.1" id="Layer_1" xmlns="http://www.w3.org/2000/svg" xmlns:xlink="http://www.w3.org/1999/xlink" x="0px" y="0px"
	 viewBox="0 0 24 24" style="enable-background:new 0 0 24 24;" xml:space="preserve">
<style type="text/css">
	.st0{fill:#0F2942;}
</style>
<path class="st0" d="M12,0C5.4,0,0,5.4,0,12s5.4,12,12,12s12-5.4,12-12S18.6,0,12,0z M13,16.1V13h3c-0.1,1.1-0.2,2.2-0.5,3.3
	C14.7,16.2,13.9,16.1,13,16.1z M15,18.2c-0.5,1.3-1.2,2.5-2,3.5v-3.6C13.7,18.1,14.3,18.1,15,18.2z M13,11V8c0.9,0,1.7-0.1,2.5-0.2
	c0.2,1,0.4,2.1,0.4,3.2H13z M13,6V2.3c0.8,1,1.5,2.2,2,3.5C14.3,5.9,13.7,6,13,6z M15.7,2.7c1.2,0.5,2.4,1.2,3.3,2.1
	c-0.6,0.2-1.3,0.4-2,0.6C16.6,4.5,16.2,3.6,15.7,2.7z M8.5,16.3c-0.2-1-0.4-2.1-0.5-3.3h3v3.1C10.1,16.1,9.3,16.2,8.5,16.3z
	 M11,18.1v3.6c-0.8-1-1.5-2.1-2-3.5C9.7,18.1,10.3,18.1,11,18.1z M8,11c0.1-1.1,0.2-2.2,0.4-3.2C9.3,7.9,10.1,8,11,8v3H8z M9,5.8
	c0.5-1.3,1.2-2.5,2-3.5V6C10.3,6,9.7,5.9,9,5.8z M7,5.5C6.3,5.3,5.6,5.1,5,4.9c0.9-0.9,2.1-1.7,3.3-2.1C7.8,3.6,7.4,4.5,7,5.5z
	 M6.5,7.4C6.2,8.5,6,9.7,6,11H2.1c0.2-1.7,0.7-3.2,1.6-4.5C4.5,6.8,5.5,7.2,6.5,7.4z M6.5,16.7c-1,0.2-1.9,0.5-2.8,0.9
	c-0.9-1.3-1.5-2.9-1.6-4.6H6C6,14.3,6.2,15.5,6.5,16.7z M7,18.6c0.3,1,0.8,1.9,1.3,2.7C7.1,20.8,6,20.1,5,19.2
	C5.7,18.9,6.3,18.7,7,18.6z M17,18.6c0.7,0.2,1.4,0.4,2,0.6c-0.9,0.9-2,1.6-3.3,2.1C16.2,20.4,16.6,19.5,17,18.6z M17.5,16.7
	c0.3-1.2,0.4-2.4,0.5-3.7h3.9c-0.2,1.7-0.7,3.2-1.6,4.6C19.4,17.2,18.5,16.9,17.5,16.7z M18,11c-0.1-1.3-0.2-2.5-0.5-3.6
	c1-0.2,1.9-0.5,2.8-0.9c0.9,1.3,1.5,2.9,1.6,4.5C21.9,11,18,11,18,11z"/>
</svg>
